X:665
T: Miss Dunbarr
Z: B.Black
S: "Treoir" 33/4
N: Note that only B part is repeated (at least
N: according to source)
L: 1/8
M: 4/4
R: reel
K: G
G3 e dGBG|dGBG AGEF|GFGe dGBd|gabg ag g2 :|
dega bagd|eBdB AGEG|dega bagd|(3gab ag eg g2|
dega bagd|eBdB AGEG|dega b2 bg|a2 ag efga :|
